X: 1
T: Superfly
R: reel
M: 4/4
L: 1/8
K: Bmin
|:"Bm"Bf ~f2 gfeg|f3 g fedf|"A"e3 f edce|dBBA BAFA|
  "Bm"Bf ~f2 gfeg|f3 g fedf|"A"e3 f edce|dBBA "Bm"B2 BA:|
|:"Bm"Bcde f2 Bc|defB "G"g2 Bc|defd "D"agfa|"G"gfeg "F#"fedc|
  "Bm"Bcde f2 Bc|defB "G"g2 Bc|defd "D"agfa|"G"gfeg "F#"f4:|


%%newpage
%% header "Pizza Wizards - Banshee / Maid Behind The Bar		$P"

